X: 89
T: No_27_Song_of_the_Old_Woman_Who_Attended_Elder_Brother.krn
N: Derived from No_27_Song_of_the_Old_Woman_Who_Attended_Elder_Brother.krn
%%abc-version 2.0
%%abcx-abcm2ps-target-version 5.9.1 (29 Sep 2008)
%%abc-creator hum2abc beta
%%abcx-conversion-date 2019/03/15 08:37:56
%%humdrum-veritas 1452406279
%%humdrum-veritas-data 4091786480
%%linebreak <none>
%%barnumbers 0
L: 1/8
M: 2/4
K: B clef=bass
F,F, [I:setbarnb 1]| 
CC CC | 
CC DC | 
CB, G,G, ||  
[M:3/4]F,F, F,F,/E,/ G,G, ||  
[M:2/4]F,3F, ||  
[M:3/4]F,2F, z F,F, ||  
[M:2/4]CC CC | 
CC DC | 
CB, G,G, ||  
[M:3/4]F,F, F,F,/E,/ G,G, ||  
[M:2/4]F,3F, | 
F,2F, z ]|:  
F,E, G,G, | 
B,3/G,/ B,F, | 
G,3/F,/ G,D, | 
F,2F, z | 
G,G, G,E, | 
F,2E,C, | 
F,F,- F,F, | 
F,4 :|]  



